X: 42179
T: Waterloo
R: hornpipe
M: 4/4
K: Dmajor
AG|FGEF DFAd|cdBc Aceg|fgef decd|BcAB AGFE|
FGEF DFAd|cdBc Aceg|fage d2ec|d2 (3ddd d2:|
de|fedf edce|dcBd cBAc|BAGB AGFA|GFED E2AG|
FGEF DFAd|cdBc Aceg|fage d2ec|d2 (3ddd d2:|

